public/avatar/shoe/193.svg

<svg xmlns:xlink="http://www.w3.org/1999/xlink" height="38.3" width="36.05" xmlns="http://www.w3.org/2000/svg"><use height="15.5" transform="translate(12.95 12.7)" width="20" xlink:href="#a"/><defs><g id="a" fill-rule="evenodd"><path d="m6.3.05-.95-.5-2.6-.65-2.05.05L0-1l-.3.05-2.95.35-.2.05.1.05-1.75-.4-.45-.15.15.35q.3.75.95 1.2l.2.15-.05.05h.15l.15.1.05-.05.05.05.35-.1.25-.05h.15L-3.1.6l5.75.25 1.8.4.4.1L5 1.3l.2-.05.05-.1.3-.15.35-.2.45-.3.1-.1h.25V.35L6.6.3l.1-.25h-.4M7.85-.1l-.05.05-.95 1.2Q7.9 2.5 8.65 4.4q.85 2.3.3 4.65l-.45 1Q9.3 12 6 12.7q-7.55 1.55-14.9-.6-1.75-.5-1.1-1.7-1.15-.9-.75-2.7 1.1-4.8 4.3-7.55-.95-1.45-.5-2.3l4 .15 7.1.65 2.05.3 1.8.6-.15.3v.05m-1.5 7.3q-1.1.7-3.35.5L-2.2 7l-3.15-.5-.35-.3-1.7-.45q-.85-.25-.55-1.15.65-2.2 2.2-3.5l-.05-.05-.1-.1q-2.55 1.45-3.55 4.4-.55 1.65-.7 3.4.45.7 1.25.9 6.85 1.5 13.95.75 1-.15 1.7-.8 3.4-3.05 0-7.15l-.3-.35-.5-.6-.25-.05q1 .6 1.4 2.35l.15 1.75-.9 1.65M1.7 6.05h1.2l3.3-.25.15-.05.3-.15.05-.1.05-.4q.05-.95-.55-1.6l-.6-.45-.2-.1-.55-.4-.4-.25-.7-.35H2.9l-5.9-.3-1.1.1-1.1.35-.75.45.25.05q-1.15 1.15-1.55 2.65l.45-.1v.05h.1l.95.65 2.4.2.4.05h.3l2.25.1 1.25-.1h.35l.5-.05m-3.05-1.8-3.05-.6-.05-.25.05-.05V3.3l.75-.55h.05q4.8-.7 7.95.85.3.1-.15.25l-2.3.35-3.25.05M8.05 11l.25-.25-.1-.1-.55-.3-.35.2q-7.8 1.75-15 .65l-.75-.15h-.25l-.75-.15q1.1.85 2.65 1.2 6.25 1.35 12.65.3 2.5-.4 2.2-1.4" fill="#371200" transform="translate(10.85 2.15)"/><path d="m-3.35-.5-.1-.05.2-.05L-.3-.95 0-1l.7-.05 2.05-.05 2.6.65.95.5.3.25.1.05V.4h-.75q.1.25-.3.15L4.9.35 4.1.3 3.25.25l-6.4-.75h-.2m9.7 7.7.9-1.65.35-.75q1.45 3.2-2 3.8l-.55.25 1.3-1.65m-2.2 1.85q-4.2.5-8-.2h.25L4.15 9v.05m3.15 1.5.35-.2.55.3.1.1-.25.25q-1.7 1.5-4.05.65 1.75-.3 3.3-1.1m-15.95.5h.2l.75.15 3 .75q-2.15.4-3.85-.85h-.05l-.05-.05m.55-6.65q.1 1.9 1.05 3.5l-.05.05q-2.95-.2-1.2-3.35l.2-.2" fill="#a95101" transform="translate(10.85 2.15)"/><path d="M6.3.05h.4L6.6.3 6.3.05m.15.35-.1.1-.45.3-.35.2-.3.15-.05.1-.2.05-.15.05-.4-.1-1.8-.4L-3.1.6l-.05.05h-.15l-.25.05-.35.1-.05-.05L-4 .8l-.15-.1-.1-.05-.2-.15Q-5.1.05-5.4-.7l-.15-.35.45.15 1.75.4h.2l6.4.75.85.05.8.05.75.2q.4.1.3-.15h.5m.8 5.15L7.1 3.8q-.4-1.75-1.4-2.35l.25.05.5.6.3.35q3.4 4.1 0 7.15-.7.65-1.7.8-7.1.75-13.95-.75-.8-.2-1.25-.9.15-1.75.7-3.4 1-2.95 3.55-4.4l.1.1.05.05q-1.55 1.3-2.2 3.5-.3.9.55 1.15l1.7.45.35.3 3.15.5 5.2.7q2.25.2 3.35-.5l-1.3 1.65.55-.25q3.45-.6 2-3.8l-.35.75m-3.1 3.5V9l-7.75-.15h-.25q3.8.7 8 .2M8.05 11q.3 1-2.2 1.4-6.4 1.05-12.65-.3-1.55-.35-2.65-1.2l.75.15h.05l.05.05-.1-.05.05.15.1-.1q1.7 1.25 3.85.85l-3-.75q7.2 1.1 15-.65-1.55.8-3.3 1.1 2.35.85 4.05-.65M-8.1 4.4l-.2.2q-1.75 3.15 1.2 3.35l.05-.05Q-8 6.3-8.1 4.4" fill="#64350b" transform="translate(10.85 2.15)"/><path d="M-4.15.7h-.15l.05-.05.1.05" fill="#96c4c7" transform="translate(10.85 2.15)"/><path d="m5.4 2.95.2.1.6.45q.6.65.55 1.6l-.05.4-.05.1-.3.15-.15.05-3.3.25H1.55l-.35.05H.85l-1.25.1-2.25-.1h-.3l-.3-.05h-.1l-2.4-.2-.95-.65h-.1v-.05l-.45.1q.4-1.5 1.55-2.65l-.25-.05.75-.45 1.1-.35 1.1-.1 5.9.3q.15.95 1.85 1.7l-.1.4q-.1.15-.05.35l-2.7-.2 2.3-.35q.45-.15.15-.25Q1.2 2.05-3.6 2.75h-.05l.1-.15-.05-.1-.2-.2-.5-.1-.4.1-.25.1q-.6.25-.55.85l.05.05.25.05.8-.05v.05l-.05.05.05.25 3.05.6-3.65.4-.4.05.15.2h.2Q.9 5.9 5.7 4.8l.4-.1-.05-.05-.4-.25-.2-.05.1-.2.1-.25q.15-.5-.25-.95m-1.9-1h.25l.7.35-.95-.35" fill="#c47500" transform="translate(10.85 2.15)"/><path d="M5.4 2.95q.4.45.25.95l-.1.25-.1.2.2.05.4.25.05.05-.4.1Q.9 5.9-5.05 4.9h-.2l-.15-.2.4-.05 3.65-.4L1.9 4.2l2.7.2q-.05-.2.05-.35l.1-.4q-1.7-.75-1.85-1.7h.6l.95.35.4.25.55.4m-9.8.35-.8.05-.25-.05-.05-.05q-.05-.6.55-.85l.25-.1.4-.1.5.1.2.2.05.1-.1.15-.75.55" fill="#ffbe46" transform="translate(10.85 2.15)"/></g></defs></svg>

<?xml version="1.0" encoding="UTF-8" standalone="no"?>
<svg xmlns:xlink="http://www.w3.org/1999/xlink" height="38.3px" width="36.05px" xmlns="http://www.w3.org/2000/svg">
  <g transform="matrix(1.0, 0.0, 0.0, 1.0, 23.8, 14.85)">
    <use height="15.5" transform="matrix(1.0, 0.0, 0.0, 1.0, -10.85, -2.15)" width="20.0" xlink:href="#shape0"/>
  </g>
  <defs>
    <g id="shape0" transform="matrix(1.0, 0.0, 0.0, 1.0, 10.85, 2.15)">
      <path d="M6.3 0.05 L5.35 -0.45 2.75 -1.1 0.7 -1.05 0.0 -1.0 -0.3 -0.95 -3.25 -0.6 -3.45 -0.55 -3.35 -0.5 -5.1 -0.9 -5.55 -1.05 -5.4 -0.7 Q-5.1 0.05 -4.45 0.5 L-4.25 0.65 -4.3 0.7 -4.15 0.7 -4.0 0.8 -3.95 0.75 -3.9 0.8 -3.55 0.7 -3.3 0.65 -3.15 0.65 -3.1 0.6 2.65 0.85 4.45 1.25 4.85 1.35 5.0 1.3 5.2 1.25 5.25 1.15 5.55 1.0 5.9 0.8 6.35 0.5 6.45 0.4 6.7 0.4 6.7 0.35 6.6 0.3 6.7 0.05 6.3 0.05 M7.85 -0.1 L7.8 -0.05 6.85 1.15 Q7.9 2.5 8.65 4.4 9.5 6.7 8.95 9.05 L8.5 10.05 Q9.3 12.0 6.0 12.7 -1.55 14.25 -8.9 12.1 -10.65 11.6 -10.0 10.4 -11.15 9.5 -10.75 7.7 -9.65 2.9 -6.45 0.15 -7.4 -1.3 -6.95 -2.15 L-2.95 -2.0 4.15 -1.35 6.2 -1.05 8.0 -0.45 7.85 -0.15 7.85 -0.1 M6.35 7.2 Q5.25 7.9 3.0 7.7 L-2.2 7.0 -5.35 6.5 -5.7 6.2 -7.4 5.75 Q-8.25 5.5 -7.95 4.6 -7.3 2.4 -5.75 1.1 L-5.8 1.05 -5.9 0.95 Q-8.45 2.4 -9.45 5.35 -10.0 7.0 -10.15 8.75 -9.7 9.45 -8.9 9.65 -2.05 11.15 5.05 10.4 6.05 10.25 6.75 9.6 10.15 6.55 6.75 2.45 L6.45 2.1 5.95 1.5 5.7 1.45 Q6.7 2.05 7.1 3.8 L7.25 5.55 6.35 7.2 M1.7 6.05 L2.1 6.05 2.9 6.05 6.2 5.8 6.35 5.75 6.65 5.6 6.7 5.5 6.75 5.1 Q6.8 4.15 6.2 3.5 L5.6 3.05 5.4 2.95 4.85 2.55 4.45 2.3 3.75 1.95 3.5 1.95 2.9 1.95 -3.0 1.65 -4.1 1.75 -5.2 2.1 -5.95 2.55 -5.7 2.6 Q-6.85 3.75 -7.25 5.25 L-6.8 5.15 -6.8 5.2 -6.7 5.2 -5.75 5.85 -3.35 6.05 -2.95 6.1 -2.65 6.1 -0.4 6.2 0.85 6.1 1.2 6.1 1.7 6.05 M-1.35 4.25 L-4.4 3.65 -4.45 3.4 -4.4 3.35 -4.4 3.3 -3.65 2.75 -3.6 2.75 Q1.2 2.05 4.35 3.6 4.65 3.7 4.2 3.85 L1.9 4.2 -1.35 4.25 M8.05 11.0 L8.3 10.75 8.2 10.65 7.65 10.35 7.3 10.55 Q-0.5 12.3 -7.7 11.2 L-8.45 11.05 -8.65 11.05 -8.7 11.05 -9.45 10.9 Q-8.35 11.75 -6.8 12.1 -0.55 13.45 5.85 12.4 8.35 12.0 8.05 11.0" fill="#371200" fill-rule="evenodd" stroke="none"/>
      <path d="M-3.35 -0.5 L-3.45 -0.55 -3.25 -0.6 -0.3 -0.95 0.0 -1.0 0.7 -1.05 2.75 -1.1 5.35 -0.45 6.3 0.05 6.6 0.3 6.7 0.35 6.7 0.4 6.45 0.4 6.25 0.4 5.95 0.4 Q6.05 0.65 5.65 0.55 L4.9 0.35 4.1 0.3 3.25 0.25 -3.15 -0.5 -3.35 -0.5 M6.35 7.2 L7.25 5.55 7.6 4.8 Q9.05 8.0 5.6 8.6 L5.05 8.85 6.35 7.2 M4.15 9.05 Q-0.05 9.55 -3.85 8.85 L-3.6 8.85 4.15 9.0 4.15 9.05 M7.3 10.55 L7.65 10.35 8.2 10.65 8.3 10.75 8.05 11.0 Q6.35 12.5 4.0 11.65 5.75 11.35 7.3 10.55 M-8.65 11.05 L-8.45 11.05 -7.7 11.2 -4.7 11.95 Q-6.85 12.35 -8.55 11.1 L-8.6 11.1 -8.65 11.05 M-8.1 4.4 Q-8.0 6.3 -7.05 7.9 L-7.1 7.95 Q-10.05 7.75 -8.3 4.6 L-8.1 4.4" fill="#a95101" fill-rule="evenodd" stroke="none"/>
      <path d="M6.3 0.05 L6.7 0.05 6.6 0.3 6.3 0.05 M6.45 0.4 L6.35 0.5 5.9 0.8 5.55 1.0 5.25 1.15 5.2 1.25 5.0 1.3 4.85 1.35 4.45 1.25 2.65 0.85 -3.1 0.6 -3.15 0.65 -3.3 0.65 -3.55 0.7 -3.9 0.8 -3.95 0.75 -4.0 0.8 -4.15 0.7 -4.25 0.65 -4.45 0.5 Q-5.1 0.05 -5.4 -0.7 L-5.55 -1.05 -5.1 -0.9 -3.35 -0.5 -3.15 -0.5 3.25 0.25 4.1 0.3 4.9 0.35 5.65 0.55 Q6.05 0.65 5.95 0.4 L6.25 0.4 6.45 0.4 M7.25 5.55 L7.1 3.8 Q6.7 2.05 5.7 1.45 L5.95 1.5 6.45 2.1 6.75 2.45 Q10.15 6.55 6.75 9.6 6.05 10.25 5.05 10.4 -2.05 11.15 -8.9 9.65 -9.7 9.45 -10.15 8.75 -10.0 7.0 -9.45 5.35 -8.45 2.4 -5.9 0.95 L-5.8 1.05 -5.75 1.1 Q-7.3 2.4 -7.95 4.6 -8.25 5.5 -7.4 5.75 L-5.7 6.2 -5.35 6.5 -2.2 7.0 3.0 7.7 Q5.25 7.9 6.35 7.2 L5.05 8.85 5.6 8.6 Q9.05 8.0 7.6 4.8 L7.25 5.55 M4.15 9.05 L4.15 9.0 -3.6 8.85 -3.85 8.85 Q-0.05 9.55 4.15 9.05 M8.05 11.0 Q8.35 12.0 5.85 12.4 -0.55 13.45 -6.8 12.1 -8.35 11.75 -9.45 10.9 L-8.7 11.05 -8.65 11.05 -8.6 11.1 -8.7 11.05 -8.65 11.2 -8.55 11.1 Q-6.85 12.35 -4.7 11.95 L-7.7 11.2 Q-0.5 12.3 7.3 10.55 5.75 11.35 4.0 11.65 6.35 12.5 8.05 11.0 M-8.1 4.4 L-8.3 4.6 Q-10.05 7.75 -7.1 7.95 L-7.05 7.9 Q-8.0 6.3 -8.1 4.4" fill="#64350b" fill-rule="evenodd" stroke="none"/>
      <path d="M-4.15 0.7 L-4.3 0.7 -4.25 0.65 -4.15 0.7" fill="#96c4c7" fill-rule="evenodd" stroke="none"/>
      <path d="M5.4 2.95 L5.6 3.05 6.2 3.5 Q6.8 4.15 6.75 5.1 L6.7 5.5 6.65 5.6 6.35 5.75 6.2 5.8 2.9 6.05 2.1 6.05 1.7 6.05 1.55 6.05 1.2 6.1 0.85 6.1 -0.4 6.2 -2.65 6.1 -2.95 6.1 -3.25 6.05 -3.35 6.05 -5.75 5.85 -6.7 5.2 -6.8 5.2 -6.8 5.15 -7.25 5.25 Q-6.85 3.75 -5.7 2.6 L-5.95 2.55 -5.2 2.1 -4.1 1.75 -3.0 1.65 2.9 1.95 Q3.05 2.9 4.75 3.65 L4.65 4.05 Q4.55 4.2 4.6 4.4 L1.9 4.2 4.2 3.85 Q4.65 3.7 4.35 3.6 1.2 2.05 -3.6 2.75 L-3.65 2.75 -3.55 2.6 -3.6 2.5 -3.8 2.3 -4.3 2.2 -4.7 2.3 -4.95 2.4 Q-5.55 2.65 -5.5 3.25 L-5.45 3.3 -5.2 3.35 -4.4 3.3 -4.4 3.35 -4.45 3.4 -4.4 3.65 -1.35 4.25 -5.0 4.65 -5.4 4.7 -5.25 4.9 -5.05 4.9 Q0.9 5.9 5.7 4.8 L6.1 4.7 6.05 4.65 5.65 4.4 5.45 4.35 5.55 4.15 5.65 3.9 Q5.8 3.4 5.4 2.95 M3.5 1.95 L3.75 1.95 4.45 2.3 3.5 1.95" fill="#c47500" fill-rule="evenodd" stroke="none"/>
      <path d="M5.4 2.95 Q5.8 3.4 5.65 3.9 L5.55 4.15 5.45 4.35 5.65 4.4 6.05 4.65 6.1 4.7 5.7 4.8 Q0.9 5.9 -5.05 4.9 L-5.25 4.9 -5.4 4.7 -5.0 4.65 -1.35 4.25 1.9 4.2 4.6 4.4 Q4.55 4.2 4.65 4.05 L4.75 3.65 Q3.05 2.9 2.9 1.95 L3.5 1.95 4.45 2.3 4.85 2.55 5.4 2.95 M-4.4 3.3 L-5.2 3.35 -5.45 3.3 -5.5 3.25 Q-5.55 2.65 -4.95 2.4 L-4.7 2.3 -4.3 2.2 -3.8 2.3 -3.6 2.5 -3.55 2.6 -3.65 2.75 -4.4 3.3" fill="#ffbe46" fill-rule="evenodd" stroke="none"/>
    </g>
  </defs>
</svg>
